X: 41458
T: Two Pint Cup, The
R: slip jig
M: 9/8
K: Gmajor
BGD DGB dBG|ecG Gce d2 c|BGD DGB dBG|cAF DEF:|
gfe d2 g B2 d|ecG Gce d2 d|gfe d2 B G2 B|cAF DEF:|
BGD DGB dBG|ecG Gce d2 c|BGD DGB d2 G|cAF DD/E/F:|
gfe d2 g B2 d|ecG Gce dB/c/d|gfe d2 B GB/c/d|cAF DEF:|

